X:431
T: Soldatenelend (150), S. 330f
N: T0319
O: Luxemburg
S: Singendes Volk, Esch-Alzette 1937, posth.]
N: Junglinster, hhh Vater des Verfassers, um 1890
R: historische, Kriegs- und Soldatenlieder]
M: 2/4
L: 1/8
K: G
 | B2BB | B2BB | BBcB | A2z
G | FAAd | d2Ad | dAAA | A2z
d | Bddd | deed | dBce | d2z
B | BABc | d2Ad | dAAA | A2z2

